X:1
T: Miss Barstow's Reel
C:
R:Reel
Q: 232
K:G
M:4/4
L:1/8
|:D|G2 DG B,G, B,D|EA AG FD EF|G2 DG EG ce|dc BA BG GD|
G2 DG B,G, B,D|EA AG FD EF|G2 DG EG ce|dc BA BG Gf|
gf gd BG dB|Aa ag fd ef|gf gd BG dB|ce dc BG Gf|
gf gd BG dB|Aa ag fd ef|gb ag fd gc|Bd Ac BG G:|
